X: 1
T: der Nayer Sher   [D]
T: the New Sher
C: Abraham Ellstein 1940
F: http://www.youtube.com/watch?v=S3Ck7JFmY88
S: Handout for MIT contra 2018-07-10 from Yaron Shragai
M: 4/4
L: 1/8
K: D
"A"|:\
"D"DD A,D FD DF | A2 B=c- cB =c/B/A | ^GA- AF "A7"=GF GA | "D"F6 z2 |\
"D"DD A,D FD DF | A2 B=c- cB =c/B/A | ^GA- AF "A7"=GE AA |1 "D"D6 z2 :|2 "D"D4 |]
"B"|: zDEF |\
"Gm"G4 z_BAG | "D"AF3 zFED | "A7"EFGA FDED | "D"A4 zDEF |\
"Gm"G4 z_BAG | "D"AF3 zFED | "A7"EFGA FDEC :|1 "D"D4 :|2 "D"D6 z2 |]
"C"|:\
 "D"A,DEF EFED | {^G}AA3- A4 | AFED EDCD | "A7"E6 z2 |\
"A7"A,EFG FGFE | {F}GG3- G4 | AFGE FDEC | "D"D6 z2  :|
